actions/24/filename-group-length.svg

<!DOCTYPE svg>
<svg xmlns="http://www.w3.org/2000/svg" viewBox="0 0 24 24" version="1.1" width="24" height="24">
  <defs>
    <style type="text/css" id="current-color-scheme">
            .ColorScheme-Text {
                color:#eff0f1;
            }
        </style>
  </defs>
  <g transform="translate(1,1)">
    <path class="ColorScheme-Text" style="fill:currentColor; fill-opacity:1; stroke:none" d="M 3 3 L 3 17 L 7 17 L 7 19 L 12 19 L 12 18 L 8 18 L 8 7 L 12 7 L 12 11 L 16 11 L 17 11 L 17 10 L 13 6 L 12 6 L 9 3 L 3 3 Z M 4 4 L 8 4 L 8 6 L 7 6 L 7 16 L 4 16 L 4 4 Z M 15.5 12 C 13.567 12 12 13.567 12 15.5 C 12 17.433 13.567 19 15.5 19 C 17.433 19 19 17.433 19 15.5 C 19 13.567 17.433 12 15.5 12 Z M 15.5 13 C 16.8807 13 18 14.1193 18 15.5 C 18 16.8807 16.8807 18 15.5 18 C 14.1193 18 13 16.8807 13 15.5 C 13 14.1193 14.1193 13 15.5 13 Z M 15 14 L 15 17 L 16 17 L 17 17 L 17 16 L 16 16 L 16 14 L 15 14 Z"/>
  </g>
</svg>

<!DOCTYPE svg>
<svg xmlns="http://www.w3.org/2000/svg" viewBox="0 0 24 24" version="1.1" width="24" height="24">
  <defs>
    <style type="text/css" id="current-color-scheme">.ColorScheme-Text {color:#fcfcfc;}</style>
  </defs>
  <g transform="translate(1,1)">
    <path class="ColorScheme-Text" style="fill:currentColor; fill-opacity:1; stroke:none" d="m 3,5 c 0,2 0,8 0,10 0,2 2,2 2,2 h 2 c 0,0 0,2 2,2 2,0 3,0 3,0 v -1 c 0,0 -2,0 -3,0 C 8,18 8,17 8,17 8,17 8,9 8,8 8,7 9,7 9,7 h 3 v 4 h 4 1 V 10 L 13,6 H 12 L 9,3 H 5 C 5,3 3,3 3,5 Z M 4,5 C 4,4 5,4 5,4 H 8 V 6 C 8,6 7,6 7,7 7,8 7,16 7,16 H 5 C 5,16 4,16 4,15 4,14 4,6 4,5 Z m 11.5,7 C 13.567,12 12,13.567 12,15.5 12,17.433 13.567,19 15.5,19 17.433,19 19,17.433 19,15.5 19,13.567 17.433,12 15.5,12 Z m 0,1 C 16.8807,13 18,14.1193 18,15.5 18,16.8807 16.8807,18 15.5,18 14.1193,18 13,16.8807 13,15.5 13,14.1193 14.1193,13 15.5,13 Z M 15,14 v 3 h 1 1 v -1 h -1 v -2 z"/>
  </g>
</svg>
